; generated by PrusaSlicer 2.4.2+win64 on 2022-06-30 at 18:23:24 UTC

; 

; external perimeters extrusion width = 0.45mm
; perimeters extrusion width = 0.45mm
; infill extrusion width = 0.45mm
; solid infill extrusion width = 0.45mm
; top infill extrusion width = 0.40mm
; first layer extrusion width = 0.42mm

M107
;TYPE:Custom
G90 ; use absolute coordinates
M83 ; extruder relative mode
M140 S65 ; set final bed temp
M104 S150 ; set temporary nozzle temp to prevent oozing during homing
G4 S10 ; allow partial nozzle warmup
G28 ; home all axis
G1 Z50 F240
G1 X2 Y10 F3000
M104 S210 ; set final nozzle temp
M190 S65 ; wait for bed temp to stabilize
M109 S210 ; wait for nozzle temp to stabilize
G1 Z0.28 F240
G92 E0
G1 Y140 E10 F1500 ; prime the nozzle
G1 X2.3 F5000
G92 E0
G1 Y10 E10 F1200 ; prime the nozzle
G92 E0
G21 ; set units to millimeters
G90 ; use absolute coordinates
M83 ; use relative distances for extrusion
; Filament gcode
M107
;LAYER_CHANGE
;Z:0.2
;HEIGHT:0.2
;BEFORE_LAYER_CHANGE
G92 E0
;0.2


G1 E-5 F3600
G1 Z.2 F9000
;AFTER_LAYER_CHANGE
;0.2
G1 X107.557 Y120.001
G1 E5 F2400
M204 S500
;TYPE:External perimeter
;WIDTH:0.42
G1 F1200
G1 X108.29 Y119.899 E.02202
G1 X108.995 Y119.863 E.02105
G1 X109.391 Y120.891 E.0328
G1 X111.142 Y120.891 E.05217
G1 X111.539 Y119.863 E.03281
G1 X112.243 Y119.899 E.02101
G1 X112.848 Y119.983 E.0182
G1 X113.431 Y119.899 E.01752
G1 X113.907 Y119.87 E.0142
G1 X115.608 Y119.865 E.05068
G1 X115.608 Y125.485 E.1674
G1 X114.091 Y125.485 E.0452
G1 X114.091 Y121.373 E.12248
G1 X113.442 Y121.349 E.01935
G1 X112.78 Y121.255 E.0199
G1 X112.78 Y120.541 E.02125
G1 X112.534 Y121.151 E.01958
G1 X112.407 Y121.621 E.01451
G1 X112.248 Y122.099 E.015
G1 X110.891 Y125.485 E.10865
G1 X109.64 Y125.485 E.03726
G1 X108.094 Y121.651 E.12312
G1 X107.919 Y121.184 E.01488
G1 X107.575 Y120.058 E.03506
G1 X107.479 Y119.609 F9000
G1 X107.292 Y120.022
G1 F1200
G1 X107.382 Y121.163 E.03409
G1 X107.4 Y121.671 E.01515
G1 X107.403 Y125.485 E.1136
G1 X106.122 Y125.485 E.03818
G1 X105.178 Y124.109 E.04969
G1 X104.406 Y122.821 E.04473
G1 X104.226 Y122.56 E.00945
G1 X104.228 Y123.28 E.02145
G1 X104.293 Y123.744 E.01396
G1 X104.321 Y124.228 E.01444
G1 X104.327 Y125.485 E.03743
G1 X102.809 Y125.485 E.04523
G1 X102.809 Y119.865 E.1674
G1 X104.096 Y119.865 E.03835
G1 X105.037 Y121.237 E.04956
G1 X105.807 Y122.522 E.0446
G1 X105.985 Y122.781 E.00938
G1 X105.985 Y122.064 E.02134
G1 X105.919 Y121.602 E.01392
G1 X105.891 Y121.118 E.01442
G1 X105.891 Y119.859 E.0375
G1 X106.665 Y119.899 E.02309
G1 X107.26 Y119.988 E.0179
G1 X107.691 Y120.016 F9000
G1 E-3.5 F3600
;WIPE_START
G1 F7200
G1 X107.382 Y121.163 E-.56138
G1 X107.4 Y121.671 E-.24153
G1 X107.401 Y122.981 E-.62209
;WIPE_END
G1 E-.075 F3600
G1 X117.062 Y100.638 F9000
G1 E5 F2400
;TYPE:Perimeter
G1 F1200
G1 X117.062 Y118.362 E.52794
G1 X100.938 Y118.362 E.48028
G1 X100.938 Y100.638 E.52794
G1 X117.002 Y100.638 E.4785
G1 X116.685 Y101.015 F9000
;TYPE:External perimeter
G1 F1200
G1 X116.685 Y117.985 E.50548
G1 X101.315 Y117.985 E.45782
G1 X101.315 Y101.015 E.50548
G1 X116.625 Y101.015 E.45603
G1 X117.07 Y100.905 F9000
G1 E-3.5 F3600
;WIPE_START
G1 F7200
G1 X116.636 Y104.015 E-1.425
;WIPE_END
G1 E-.075 F3600
G1 X107.452 Y119.635 F9000
G1 E5 F2400
;TYPE:Perimeter
G1 F1200
G1 X106.703 Y119.523 E.02257
G1 X105.514 Y119.463 E.03545
G1 X105.525 Y121.317 E.05525
G1 X105.355 Y121.033 E.00986
G1 X104.295 Y119.488 E.05582
G1 X102.432 Y119.488 E.0555
G1 X102.432 Y125.862 E.18986
G1 X104.706 Y125.862 E.06775
G1 X104.686 Y124.022 E.05481
G1 X104.86 Y124.313 E.01009
G1 X105.923 Y125.862 E.05596
G1 X107.781 Y125.862 E.05533
G1 X107.777 Y121.872 E.11885
G1 X109.386 Y125.862 E.12814
G1 X111.146 Y125.862 E.05244
G1 X112.603 Y122.229 E.11658
G1 X112.794 Y121.637 E.01852
G1 X113.408 Y121.725 E.01848
G1 X113.714 Y121.736 E.00912
G1 X113.714 Y125.862 E.12289
G1 X115.962 Y125.862 E.06696
G1 X114.391 Y126.501 E.05051
G1 X112.768 Y126.974 E.05033
G1 X111.107 Y127.276 E.05029
G1 X109.421 Y127.407 E.05037
G1 X107.732 Y127.363 E.05033
G1 X106.058 Y127.146 E.05029
G1 X104.412 Y126.758 E.05037
G1 X102.816 Y126.202 E.05033
G1 X101.286 Y125.486 E.05033
G1 X99.837 Y124.616 E.05033
G1 X98.486 Y123.602 E.05033
G1 X97.246 Y122.454 E.05032
G1 X96.233 Y121.309 E.04553
G1 X96.034 Y121.057 E.00955
G1 X95.152 Y119.808 E.04556
G1 X94.395 Y118.479 E.04556
G1 X94.251 Y118.192 E.00958
G1 X93.703 Y116.939 E.04073
G1 X93.59 Y116.638 E.00958
G1 X93.129 Y115.181 E.04553
G1 X92.783 Y113.524 E.0504
G1 X92.61 Y111.845 E.05029
G1 X92.61 Y110.155 E.05033
G1 X92.783 Y108.474 E.05033
G1 X93.129 Y106.82 E.05033
G1 X93.643 Y105.211 E.05033
G1 X94.32 Y103.662 E.05033
G1 X95.152 Y102.192 E.05033
G1 X96.131 Y100.815 E.05033
G1 X97.247 Y99.545 E.05036
G1 X98.366 Y98.503 E.04553
G1 X98.613 Y98.297 E.00958
G1 X99.706 Y97.476 E.04073
G1 X99.973 Y97.297 E.00958
G1 X101.287 Y96.513 E.04556
G1 X102.67 Y95.861 E.04556
G1 X102.967 Y95.74 E.00955
G1 X104.412 Y95.242 E.04553
G1 X106.058 Y94.854 E.05036
G1 X107.734 Y94.637 E.05036
G1 X109.262 Y94.593 E.04553
G1 X109.583 Y94.601 E.00955
G1 X111.106 Y94.724 E.04553
G1 X112.77 Y95.027 E.05036
G1 X114.392 Y95.499 E.05033
G1 X115.957 Y96.136 E.05033
G1 X117.449 Y96.93 E.05033
G1 X118.851 Y97.873 E.05033
G1 X120.148 Y98.955 E.05033
G1 X121.328 Y100.166 E.05033
G1 X122.376 Y101.49 E.05033
G1 X123.283 Y102.916 E.05033
G1 X124.039 Y104.428 E.05033
G1 X124.635 Y106.009 E.05033
G1 X125.065 Y107.643 E.05033
G1 X125.325 Y109.312 E.05033
G1 X125.412 Y111.001 E.05036
G1 X125.338 Y112.528 E.04553
G1 X125.305 Y112.843 E.00945
G1 X125.026 Y114.524 E.05075
G1 X124.634 Y115.992 E.04527
G1 X124.099 Y117.424 E.04552
G1 X123.972 Y117.717 E.00951
G1 X123.283 Y119.084 E.04561
G1 X122.376 Y120.51 E.05032
G1 X121.328 Y121.834 E.05031
G1 X120.018 Y123.159 E.05551
G1 X118.851 Y124.127 E.04514
G1 X117.448 Y125.071 E.05039
G1 X115.985 Y125.85 E.04935
G1 X115.985 Y119.488 E.18949
G1 X113.894 Y119.493 E.06229
G1 X113.392 Y119.524 E.01498
G1 X112.847 Y119.603 E.0164
G1 X112.279 Y119.523 E.0171
G1 X111.287 Y119.473 E.02959
G1 X110.882 Y120.514 E.03327
G1 X109.65 Y120.514 E.03671
G1 X109.249 Y119.472 E.03323
G1 X108.254 Y119.523 E.02969
G1 X107.512 Y119.627 E.02232
G1 E-3.5 F3600
;WIPE_START
G1 F7200
G1 X106.703 Y119.523 E-.3874
G1 X105.514 Y119.463 E-.56539
G1 X105.52 Y120.457 E-.47222
;WIPE_END
G1 E-.075 F3600
G1 X105.99 Y127.518 F9000
G1 E5 F2400
;TYPE:External perimeter
G1 F1200
G1 X104.306 Y127.12 E.05153
G1 X102.674 Y126.552 E.05149
G1 X101.108 Y125.819 E.05149
G1 X99.626 Y124.929 E.05149
G1 X98.244 Y123.892 E.05149
G1 X96.976 Y122.718 E.05146
G1 X95.944 Y121.551 E.0464
G1 X95.732 Y121.283 E.01016
G1 X94.833 Y120.011 E.04641
G1 X94.062 Y118.657 E.04641
G1 X93.909 Y118.352 E.01017
G1 X93.354 Y117.081 E.04131
G1 X93.233 Y116.761 E.01017
G1 X92.764 Y115.276 E.0464
G1 X92.41 Y113.582 E.05154
G1 X92.233 Y111.864 E.05145
G1 X92.233 Y110.136 E.05149
G1 X92.41 Y108.416 E.05149
G1 X92.764 Y106.724 E.05149
G1 X93.29 Y105.077 E.05149
G1 X93.982 Y103.493 E.05149
G1 X94.833 Y101.989 E.05149
G1 X95.835 Y100.58 E.05149
G1 X96.976 Y99.282 E.0515
G1 X98.116 Y98.22 E.0464
G1 X98.379 Y98.001 E.01017
G1 X99.488 Y97.169 E.04131
G1 X99.771 Y96.978 E.01017
G1 X101.109 Y96.18 E.04641
G1 X102.518 Y95.516 E.04641
G1 X102.834 Y95.387 E.01016
G1 X104.307 Y94.879 E.0464
G1 X105.99 Y94.482 E.0515
G1 X107.705 Y94.26 E.0515
G1 X109.262 Y94.216 E.0464
G1 X109.603 Y94.225 E.01016
G1 X111.155 Y94.349 E.0464
G1 X112.856 Y94.659 E.0515
G1 X114.516 Y95.142 E.05149
G1 X116.117 Y95.794 E.05149
G1 X117.643 Y96.606 E.05149
G1 X119.077 Y97.571 E.05149
G1 X120.405 Y98.678 E.05149
G1 X121.611 Y99.916 E.05149
G1 X122.684 Y101.272 E.05149
G1 X123.612 Y102.73 E.05149
G1 X124.385 Y104.277 E.05149
G1 X124.994 Y105.894 E.05149
G1 X125.435 Y107.566 E.05149
G1 X125.701 Y109.274 E.05149
G1 X125.79 Y111 E.0515
G1 X125.714 Y112.556 E.0464
G1 X125.679 Y112.894 E.0101
G1 X125.395 Y114.603 E.05163
G1 X124.994 Y116.107 E.04636
G1 X124.449 Y117.565 E.04637
G1 X124.313 Y117.877 E.01012
G1 X123.611 Y119.271 E.04648
G1 X122.684 Y120.728 E.05146
G1 X121.611 Y122.084 E.05151
G1 X120.273 Y123.437 E.05668
G1 X119.078 Y124.429 E.04626
G1 X117.642 Y125.395 E.05154
G1 X116.116 Y126.207 E.05149
G1 X114.515 Y126.858 E.05149
G1 X112.855 Y127.341 E.05149
G1 X111.156 Y127.651 E.05145
G1 X109.431 Y127.784 E.05153
G1 X107.703 Y127.739 E.05149
G1 X106.049 Y127.525 E.04966
G1 X105.855 Y127.141 F9000
G1 E-3.5 F3600
;WIPE_START
G1 F7200
G1 X104.306 Y127.12 E-.85006
G1 X103.163 Y126.722 E-.57494
;WIPE_END
G1 E-.075 F3600
G1 X103.883 Y126.208 F9000
G1 E5 F2400
;TYPE:Gap fill
;WIDTH:0.312275
G1 F1200
G1 X103.722 Y126.181 E.00348
;WIDTH:0.268484
G1 X103.561 Y126.153 E.00291
;WIDTH:0.224693
G1 X103.4 Y126.126 E.00235
;WIDTH:0.180902
G1 X103.239 Y126.099 E.00178
;WIDTH:0.137111
G1 X103.078 Y126.072 E.00122
G1 E-3.5 F3600
;WIPE_START
G1 F7200
G1 X103.239 Y126.099 E-.0776
;WIPE_END
G1 E-1.4224 F3600
G1 X104.631 Y123.842 F9000
G1 E5 F2400
;WIDTH:0.274779
G1 F1200
G1 X104.593 Y123.719 E.00236
;WIDTH:0.268733
G1 X104.447 Y123.278 E.00829
G1 X105.765 Y122.063 F9000
;WIDTH:0.265674
G1 F1200
G1 X105.62 Y121.627 E.00808
;WIDTH:0.274969
G1 X105.58 Y121.498 E.00248
G1 E-3.5 F3600
;WIPE_START
G1 F7200
G1 X105.62 Y121.627 E-.06438
;WIPE_END
G1 E-1.43562 F3600
G1 X107.638 Y121.147 F9000
G1 E5 F2400
;WIDTH:0.180259
G1 F1200
G1 X107.599 Y120.938 E.00231
;WIDTH:0.13679
G1 X107.559 Y120.729 E.00158
G1 X107.638 Y121.147 F9000
;WIDTH:0.180983
G1 F1200
G1 X107.639 Y121.15 E.00003
;WIDTH:0.212574
G1 X107.659 Y121.269 E.00162
;WIDTH:0.21416
G1 X107.66 Y121.275 E.00007
;WIDTH:0.260674
G1 X107.701 Y121.481 E.00361
;WIDTH:0.307186
G1 X107.742 Y121.687 E.00439
G1 X107.987 Y122.952 F9000
;WIDTH:0.134574
G1 F1200
G1 X108.013 Y123.088 E.00101
;WIDTH:0.175826
G1 X108.04 Y123.225 E.00146
;WIDTH:0.217078
G1 X108.067 Y123.362 E.00192
;WIDTH:0.258331
G1 X108.093 Y123.498 E.00237
;WIDTH:0.299583
G1 X108.12 Y123.635 E.00282
G1 E-3.5 F3600
;WIPE_START
G1 F7200
G1 X108.093 Y123.498 E-.06615
;WIPE_END
G1 E-1.43385 F3600
G1 X112.837 Y121.872 F9000
G1 E5 F2400
;TYPE:Solid infill
;WIDTH:0.433246
G1 F1200
G1 X113.431 Y122.467 E.02591
G1 X113.431 Y123.019 E.01702
G1 X112.831 Y122.419 E.02615
G1 X112.673 Y122.813 E.01309
G1 X113.431 Y123.571 E.03304
G1 X113.431 Y124.122 E.01702
G1 X112.515 Y123.207 E.03992
G1 X112.357 Y123.601 E.01309
G1 X113.431 Y124.674 E.04681
G1 X113.431 Y125.226 E.01702
G1 X112.199 Y123.995 E.05369
G1 X112.041 Y124.389 E.01309
G1 X113.431 Y125.778 E.06058
G1 X113.431 Y126.145 E.0113
G1 X113.797 Y126.145 E.0113
G1 X113.84 Y126.188 E.00187
G1 X113.865 Y126.36 E.00537
G1 X113.552 Y126.451 E.01006
G1 X111.883 Y124.783 E.07273
G1 X111.726 Y125.177 E.01309
G1 X113.124 Y126.576 E.06098
G1 X112.696 Y126.699 E.01374
G1 X111.568 Y125.571 E.04919
G1 X111.41 Y125.965 E.01309
G1 X112.229 Y126.784 E.03572
G1 X111.762 Y126.87 E.01463
G1 X111.037 Y126.145 E.0316
G1 X110.485 Y126.145 E.01702
G1 X111.295 Y126.955 E.03531
G1 X111.071 Y126.995 E.00702
G1 X110.804 Y127.016 E.00824
G1 X109.764 Y125.975 E.04539
G1 E-3.5 F3600
;WIPE_START
G1 F7200
G1 X110.804 Y127.016 E-.69921
G1 X111.071 Y126.995 E-.12699
G1 X111.295 Y126.955 E-.10816
G1 X110.565 Y126.224 E-.49064
;WIPE_END
G1 E-.075 F3600
G1 X108.629 Y124.289 F9000
G1 E5 F2400
G1 F1200
G1 X108.24 Y123.9 E.01697
G1 X108.062 Y123.935 E.00561
G1 X108.062 Y124.274 E.01045
G1 X109.002 Y125.214 E.04101
G1 X107.893 Y124.656 F9000
G1 F1200
G1 X110.292 Y127.056 E.10463
G1 X109.78 Y127.095 E.01585
G1 X108.063 Y125.379 E.07486
G1 X108.063 Y125.931 E.01704
G1 X109.252 Y127.119 E.05181
G1 X108.685 Y127.105 E.01748
G1 X107.725 Y126.145 E.04186
G1 X107.173 Y126.145 E.01702
G1 X108.118 Y127.09 E.04122
G1 X107.754 Y127.081 E.01124
G1 X107.528 Y127.051 E.00704
G1 X106.451 Y125.975 E.04693
G1 X104.809 Y124.884 F9000
G1 F1200
G1 X105.13 Y125.205 E.01399
G1 X105.774 Y126.145 E.03513
G1 X106.069 Y126.145 E.0091
G1 X106.894 Y126.969 E.03595
G1 X106.259 Y126.887 E.01971
G1 X104.986 Y125.614 E.05552
G1 X104.992 Y126.145 E.01637
G1 X104.965 Y126.145 E.00083
G1 X105.558 Y126.738 E.02585
G1 X104.835 Y126.567 E.02289
G1 X104.243 Y125.975 E.02581
G1 E-3.5 F3600
;WIPE_START
G1 F7200
G1 X104.835 Y126.567 E-.39764
G1 X105.558 Y126.738 E-.35265
G1 X104.965 Y126.145 E-.39823
G1 X104.992 Y126.145 E-.01272
G1 X104.986 Y125.614 E-.25219
G1 X105.003 Y125.631 E-.01156
;WIPE_END
G1 E-.075 F3600
G1 X114.129 Y126.213 F9000
G1 E5 F2400
;TYPE:Gap fill
;WIDTH:0.326732
G1 F1200
G1 X114.283 Y126.191 E.00348
;WIDTH:0.32302
G1 X114.405 Y126.167 E.00276
;WIDTH:0.27708
G1 X114.528 Y126.143 E.00231
;WIDTH:0.23114
G1 X114.65 Y126.119 E.00185
;WIDTH:0.1852
G1 X114.773 Y126.095 E.0014
;WIDTH:0.139259
G1 X114.895 Y126.071 E.00095
G1 E-3.5 F3600
;WIPE_START
G1 F7200
G1 X114.773 Y126.095 E-.05925
;WIPE_END
G1 E-1.44075 F3600
G1 X122.044 Y101.252 F9000
G1 E5 F2400
;TYPE:Solid infill
;WIDTH:0.422245
G1 F1200
G1 X119.947 Y99.156 E.08885
G1 X118.681 Y98.099 E.0494
G1 X117.683 Y97.428 E.03605
G1 X122.558 Y102.304 E.20661
G1 X123.037 Y103.056 E.02671
G1 X123.299 Y103.581 E.01759
G1 X116.421 Y96.703 E.29146
G1 X115.837 Y96.392 E.01982
G1 X115.393 Y96.211 E.01436
G1 X123.813 Y104.631 E.3568
G1 X124.138 Y105.492 E.02757
G1 X114.489 Y95.844 E.40887
G1 X114.299 Y95.766 E.00615
G1 X113.701 Y95.592 E.01865
G1 X124.423 Y106.314 E.45431
G1 X124.614 Y107.042 E.02256
G1 X112.945 Y95.372 E.4945
G1 X112.705 Y95.302 E.00749
G1 X112.257 Y95.221 E.01364
G1 X124.797 Y107.761 E.53141
G1 X124.896 Y108.397 E.01927
G1 X117.345 Y100.845 E.31999
G1 X117.345 Y100.355 E.01468
G1 X116.855 Y100.355 E.01468
G1 X111.601 Y95.101 E.22264
G1 X110.959 Y94.995 E.0195
G1 X116.318 Y100.355 E.22712
G1 X115.782 Y100.355 E.01607
G1 X110.375 Y94.949 E.22911
G1 X109.792 Y94.902 E.01753
G1 X115.245 Y100.355 E.23109
G1 X114.709 Y100.355 E.01607
G1 X109.231 Y94.877 E.23215
G1 X108.709 Y94.892 E.01563
G1 X114.173 Y100.355 E.23151
G1 X113.636 Y100.355 E.01607
G1 X108.188 Y94.907 E.23088
G1 X107.674 Y94.93 E.0154
G1 X113.1 Y100.355 E.22991
G1 X112.563 Y100.355 E.01607
G1 X107.199 Y94.991 E.2273
G1 X106.724 Y95.053 E.01435
G1 X112.027 Y100.355 E.2247
G1 X111.49 Y100.355 E.01607
G1 X106.249 Y95.114 E.22209
G1 X105.803 Y95.204 E.01364
G1 X110.954 Y100.355 E.21826
G1 X110.417 Y100.355 E.01607
G1 X105.369 Y95.307 E.21392
G1 X104.935 Y95.409 E.01336
G1 X109.881 Y100.355 E.20958
G1 X109.345 Y100.355 E.01607
G1 X104.501 Y95.512 E.20524
G1 X104.101 Y95.648 E.01266
G1 X108.808 Y100.355 E.19945
G1 X108.272 Y100.355 E.01607
G1 X103.702 Y95.786 E.19363
G1 X103.303 Y95.923 E.01264
G1 X107.735 Y100.355 E.1878
G1 X107.199 Y100.355 E.01607
G1 X102.912 Y96.068 E.18167
G1 X102.541 Y96.234 E.01216
G1 X106.662 Y100.355 E.17462
G1 X106.126 Y100.355 E.01607
G1 X102.177 Y96.406 E.16734
G1 X101.812 Y96.578 E.01208
G1 X105.589 Y100.355 E.16006
G1 X105.053 Y100.355 E.01607
G1 X101.448 Y96.75 E.15277
G1 X101.11 Y96.948 E.01175
G1 X104.517 Y100.355 E.14437
G1 X103.98 Y100.355 E.01607
G1 X100.774 Y97.149 E.13588
G1 X100.438 Y97.349 E.01172
G1 X103.444 Y100.355 E.12738
G1 X102.907 Y100.355 E.01607
G1 X100.103 Y97.551 E.11884
G1 X99.786 Y97.77 E.01155
G1 X102.371 Y100.355 E.10953
G1 X101.834 Y100.355 E.01607
G1 X99.479 Y98 E.09979
G1 X99.173 Y98.23 E.01148
G1 X101.298 Y100.355 E.09004
G1 X100.761 Y100.355 E.01607
G1 X98.866 Y98.46 E.0803
G1 X98.788 Y98.519 E.00293
G1 X98.57 Y98.701 E.0085
G1 X100.655 Y100.785 E.08834
G1 X100.655 Y101.322 E.01607
G1 X98.292 Y98.958 E.10015
G1 X98.014 Y99.217 E.01137
G1 X100.655 Y101.858 E.11192
G1 X100.655 Y102.395 E.01607
G1 X97.736 Y99.476 E.12369
G1 X97.458 Y99.734 E.01137
G1 X100.655 Y102.931 E.13547
G1 X100.655 Y103.468 E.01607
G1 X97.207 Y100.019 E.14613
G1 X96.956 Y100.304 E.01139
G1 X100.655 Y104.004 E.15677
G1 X100.655 Y104.54 E.01607
G1 X96.705 Y100.59 E.1674
G1 X96.454 Y100.876 E.01139
G1 X100.655 Y105.077 E.17803
G1 X100.655 Y105.613 E.01607
G1 X96.22 Y101.178 E.18796
G1 X95.997 Y101.491 E.01153
G1 X100.655 Y106.15 E.1974
G1 X100.655 Y106.686 E.01607
G1 X95.774 Y101.805 E.20685
G1 X95.551 Y102.118 E.01153
G1 X100.655 Y107.223 E.21629
G1 X100.655 Y107.759 E.01607
