;FLAVOR:UltiGCode
;TIME:1167
;MATERIAL:2935
;MATERIAL2:0
;NOZZLE_DIAMETER:0.4
;MINX:93.378
;MINY:94.225
;MINZ:0.27
;MAXX:129.669
;MAXY:129.667
;MAXZ:11.87
;Generated with Cura_SteamEngine 5.0.0-beta+1
M82 ;absolute extrusion mode
G0 F3000 Y50 ;avoid prime blob
G92 E0
G92 E0
G10
;LAYER_COUNT:59
;LAYER:0
M107
;MESH:lanstopfen.3MF
G0 F4500 X103.905 Y101.814 Z0.27
;TYPE:WALL-OUTER
G11
G1 F1800 X104.005 Y101.642 E0.02149
G1 X104.645 Y101.603 E0.09074
G1 X118.893 Y101.603 E1.62952
G1 X119.077 Y101.738 E1.65417
G1 X119.095 Y102.419 E1.72774
G1 X119.095 Y109.061 E2.44508
G1 X119.095 Y118.173 E3.42917
G1 X118.979 Y118.365 E3.4534
G1 X118.817 Y118.393 E3.47115
G1 X104.125 Y118.393 E5.05789
G1 X103.954 Y118.305 E5.07866
G1 X103.905 Y118.173 E5.09387
G1 X103.905 Y101.814 E6.86064
G0 F4500 X104.005 Y101.642
G0 X104.006 Y101.642
G10
G0 X103.716 Y101.351
G0 X103.325 Y110.947
G0 X95.241 Y110.148
G0 X95.012 Y110.947
G11
G0 X94.601 Y110.948
G1 F1800 X94.608 Y112.373 E7.01454
G1 X94.634 Y112.681 E7.04792
G1 X94.787 Y114.099 E7.20196
G1 X95.095 Y115.598 E7.36723
G1 X95.242 Y116.139 E7.42778
G1 X95.595 Y117.238 E7.55244
G1 X95.813 Y117.8 E7.61754
G1 X96.372 Y119.062 E7.76661
G1 X96.516 Y119.333 E7.79976
G1 X97.225 Y120.573 E7.95402
G1 X98.095 Y121.807 E8.11708
G1 X98.309 Y122.077 E8.15429
G1 X99.226 Y123.128 E8.30493
G1 X99.627 Y123.532 E8.36641
G1 X100.668 Y124.488 E8.51905
G1 X102.06 Y125.535 E8.70717
G1 X103.547 Y126.429 E8.89455
G1 X105.125 Y127.166 E9.08265
G1 X106.775 Y127.74 E9.27132
G1 X108.017 Y128.033 E9.40914
G1 X108.703 Y128.176 E9.48482
G1 X110.195 Y128.362 E9.64721
G1 X111.934 Y128.407 E9.83508
G1 X113.183 Y128.31 E9.97038
G1 X113.908 Y128.234 E10.04911
G1 X115.388 Y127.959 E10.21168
G1 X117.057 Y127.473 E10.39942
G1 X118.44 Y126.913 E10.56057
G1 X118.699 Y126.803 E10.59096
G1 X120.207 Y125.999 E10.77552
G1 X121.28 Y125.276 E10.91526
G1 X121.84 Y124.876 E10.98958
G1 X122.99 Y123.911 E11.15172
G1 X123.871 Y123.004 E11.28828
G1 X124.314 Y122.528 E11.3585
G1 X125.143 Y121.489 E11.50206
G1 X125.471 Y121.019 E11.56395
G1 X126.222 Y119.827 E11.71611
G1 X126.898 Y118.488 E11.87811
G1 X127.123 Y117.954 E11.94069
G1 X127.61 Y116.654 E12.09062
G1 X128.053 Y114.982 E12.27742
G1 X128.246 Y113.729 E12.41434
G1 X128.344 Y112.997 E12.49411
G1 X128.409 Y111.733 E12.6308
G1 X128.409 Y111.384 E12.66849
G1 X128.404 Y111.132 E12.69571
G1 X128.343 Y109.995 E12.81868
G1 X128.277 Y109.402 E12.88312
G1 X128.096 Y108.249 E13.00917
G1 X127.979 Y107.715 E13.06821
G1 X127.679 Y106.581 E13.1949
G1 X127.493 Y106.017 E13.25904
G1 X126.996 Y104.72 E13.40904
G1 X126.873 Y104.458 E13.4403
G1 X126.331 Y103.375 E13.5711
G1 X126.148 Y103.054 E13.611
G1 X125.417 Y101.895 E13.75899
G1 X125.09 Y101.443 E13.81924
G1 X124.356 Y100.515 E13.94703
G1 X123.983 Y100.096 E14.00761
G1 X123.161 Y99.251 E14.13493
G1 X122.763 Y98.89 E14.19296
G1 X121.648 Y97.967 E14.34929
G1 X121.428 Y97.81 E14.37848
G1 X120.407 Y97.125 E14.51126
G1 X119.943 Y96.851 E14.56946
G1 X118.882 Y96.285 E14.69933
G1 X118.382 Y96.055 E14.75877
G1 X117.279 Y95.608 E14.88731
G1 X116.741 Y95.425 E14.94868
G1 X115.387 Y95.038 E15.10077
G1 X115.103 Y94.98 E15.13207
G1 X113.667 Y94.724 E15.28961
G1 X113.378 Y94.695 E15.32098
G1 X111.931 Y94.59 E15.47766
G1 X111.65 Y94.589 E15.50801
G1 X110.435 Y94.622 E15.63928
G1 X109.873 Y94.67 E15.7002
G1 X108.703 Y94.821 E15.8276
G1 X108.115 Y94.933 E15.89225
G1 X106.774 Y95.257 E16.04125
G1 X106.506 Y95.343 E16.07164
G1 X105.351 Y95.746 E16.20376
G1 X104.841 Y95.957 E16.26337
G1 X103.763 Y96.461 E16.39189
G1 X103.283 Y96.722 E16.45089
G1 X102.058 Y97.464 E16.60557
G1 X100.852 Y98.364 E16.76809
G1 X100.446 Y98.706 E16.82542
G1 X99.557 Y99.528 E16.95619
G1 X99.177 Y99.923 E17.01538
G1 X98.39 Y100.819 E17.14418
G1 X98.043 Y101.266 E17.20529
G1 X97.226 Y102.425 E17.35844
G1 X97.079 Y102.673 E17.38958
G1 X96.369 Y103.939 E17.54634
G1 X96.247 Y104.203 E17.57775
G1 X95.764 Y105.31 E17.70819
G1 X95.56 Y105.867 E17.77225
G1 X95.214 Y106.951 E17.89514
G1 X95.068 Y107.523 E17.9589
G1 X94.831 Y108.662 E18.08455
G1 X94.744 Y109.263 E18.15013
G1 X94.608 Y110.633 E18.29882
G1 X94.601 Y110.948 E18.33285
G0 F4500 X94.601 Y111.148
G0 X95.013 Y111.147
G0 X95.379 Y114.198
G0 X95.776 Y115.968
G0 X96.326 Y117.573
G0 X97.003 Y119.055
G0 X97.783 Y120.391
G0 X98.732 Y121.709
G0 X100.082 Y123.187
G0 X101.116 Y124.124
G0 X102.444 Y125.112
G0 X104.168 Y126.1
G0 X104.937 Y126.442
G0 X106.701 Y126.139
G0 X106.975 Y123.859
G0 X106.736 Y123.09
G1 F1800 X106.737 Y125.673 E18.61181
G1 X106.606 Y125.873 E18.63763
G1 X106.516 Y125.893 E18.64759
G1 X105.619 Y125.893 E18.74446
G1 F1805 X105.458 Y125.814 E18.76378
G1 X105.399 Y125.673 E18.78025
G1 F1800 X105.399 Y120.673 E19.32025
G1 X105.477 Y120.511 E19.33967
G1 X105.619 Y120.453 E19.35623
G1 X106.433 Y120.453 E19.44415
G1 X106.614 Y120.549 E19.46627
G1 X108.476 Y123.244 E19.82005
G1 X108.476 Y120.673 E20.09771
G1 X108.554 Y120.511 E20.11713
G1 X108.696 Y120.453 E20.1337
G1 X109.593 Y120.453 E20.23057
G1 F1845.6 X109.766 Y120.558 E20.25194
G1 F1954.8 X109.793 Y120.816 E20.27792
G1 F2001.8 X109.795 Y121.356 E20.33085
G1 F1978 X109.797 Y121.896 E20.38436
G1 F1954.8 X109.799 Y122.436 E20.43845
G1 F1926.4 X109.801 Y122.976 E20.49327
G1 F1904.2 X109.804 Y123.516 E20.54868
G1 F1882.5 X109.806 Y124.056 E20.60466
G1 F1856 X109.808 Y124.596 E20.66138
G1 F1835.3 X109.81 Y125.136 E20.71868
G1 F1815 X109.813 Y125.676 E20.77656
G1 F1800 X109.735 Y125.835 E20.79569
G1 X109.593 Y125.893 E20.81226
G1 X108.778 Y125.893 E20.90028
G1 X108.662 Y125.853 E20.91353
G1 X108.604 Y125.797 E20.92224
G1 X106.736 Y123.09 E21.27744
G0 F4500 X106.736 Y123.29
G0 X106.975 Y123.859
G0 X108.459 Y126.024
G0 X109.778 Y126.139
G0 X110.132 Y122.4
G0 X111.965 Y125.973
G0 X113.32 Y126.141
G0 X115.167 Y122.369
G0 X116.443 Y122.028
G0 X116.435 Y125.858
G0 X118.121 Y126.472
G0 X118.264 Y120.488
G0 X115.341 Y120.043
G0 X115.341 Y120.728
G1 F1949 X115.091 Y121.535 E21.3623
G1 F1800 X113.658 Y125.085 E21.77576
G1 X113.387 Y125.754 E21.85371
G1 X113.324 Y125.837 E21.86497
G1 X113.088 Y125.893 E21.89116
G1 X112.348 Y125.893 E21.97108
G1 X112.159 Y125.785 E21.99459
G1 X112.144 Y125.754 E21.99831
G1 X111.945 Y125.259 E22.05593
G1 F1815 X111.745 Y124.758 E22.11375
G1 F1835.3 X111.545 Y124.256 E22.17109
G1 F1856 X111.344 Y123.755 E22.22779
G1 F1882.5 X111.144 Y123.253 E22.28381
G1 F1904.2 X110.944 Y122.752 E22.33916
G1 F1926.4 X110.743 Y122.25 E22.39406
G1 F1954.8 X110.543 Y121.749 E22.44809
G1 F1978 X110.343 Y121.247 E22.50164
G1 F2001.8 X110.142 Y120.746 E22.55455
G1 F1909.7 X110.188 Y120.512 E22.57895
G1 F1805 X110.329 Y120.453 E22.59542
G1 F1800 X111.289 Y120.453 E22.6991
G1 X111.484 Y120.569 E22.7236
G1 X111.83 Y121.478 E22.82865
G1 X113.703 Y121.478 E23.03093
G1 X114.037 Y120.595 E23.13289
G1 X114.209 Y120.455 E23.15684
G1 X114.244 Y120.453 E23.16063
G1 X115.227 Y120.454 E23.26679
G1 F1932 X115.335 Y120.603 E23.28542
G1 F2115.7 X115.345 Y120.673 E23.29201
G1 F1960.5 X115.449 Y120.457 E23.31596
G1 F1800 X115.49 Y120.453 E23.32041
G1 X117.798 Y120.453 E23.56967
G1 X118 Y120.589 E23.59597
G1 X118.019 Y120.728 E23.61112
G1 X118.018 Y125.673 E24.14518
G1 X117.874 Y125.879 E24.17233
G1 X117.798 Y125.893 E24.18067
G1 X116.878 Y125.892 E24.28003
G1 X116.69 Y125.734 E24.30656
G1 X116.681 Y125.673 E24.31321
G1 X116.681 Y121.79 E24.73258
G1 X115.49 Y121.79 E24.86121
G1 X115.328 Y121.712 E24.88062
G1 X115.27 Y121.57 E24.89719
G1 F1949 X115.341 Y120.728 E24.98206
G0 F4500 X115.282 Y120.919
G0 X115.282 Y120.043
G0 X118.024 Y120.107
G0 X118.364 Y125.899
G0 X116.675 Y126.239
G0 X116.343 Y122.128
G0 X115.264 Y122.136
G0 X113.647 Y126.039
G0 X112.18 Y126.241
G0 X110.204 Y122.044
G0 X110.213 Y122.041
;TYPE:WALL-INNER
G1 F1800 X110.213 Y125.673 E25.37432
G1 X110.073 Y126.059 E25.41866
G1 X109.87 Y126.226 E25.44705
G1 X109.593 Y126.293 E25.47783
G1 X108.765 Y126.293 E25.56725
G1 X108.45 Y126.193 E25.60295
G1 X108.274 Y126.025 E25.62923
G1 X107.137 Y124.375 E25.84564
G1 X107.137 Y125.673 E25.98582
G1 X106.961 Y126.098 E26.0355
G1 X106.785 Y126.231 E26.05933
G1 X106.516 Y126.293 E26.08914
G1 F1679.2 X105.619 Y126.319 E26.19236
G1 F1534.3 X105.349 Y126.27 E26.22659
G1 F1615.9 X105.17 Y126.102 E26.25582
G1 F1775.6 X104.999 Y125.673 E26.30632
G1 F1800 X104.999 Y120.673 E26.84632
G1 X105.071 Y120.386 E26.87827
G1 X105.194 Y120.228 E26.8999
G1 X105.619 Y120.053 E26.94954
G1 X106.433 Y120.053 E27.03745
G1 X106.767 Y120.154 E27.07514
G1 X106.943 Y120.322 E27.10141
G1 X108.076 Y121.961 E27.3166
G1 X108.076 Y120.673 E27.45571
G1 X108.251 Y120.248 E27.50534
G1 X108.592 Y120.061 E27.54735
G1 X108.696 Y120.053 E27.55861
G1 X109.593 Y120.053 E27.65549
G1 X109.848 Y120.109 E27.68368
G1 X109.961 Y120.188 E27.69857
G1 X110.225 Y120.061 E27.73021
G1 X110.329 Y120.053 E27.74148
G1 X111.289 Y120.053 E27.84516
G1 X111.647 Y120.17 E27.88584
G1 X111.873 Y120.46 E27.92554
G1 X112.107 Y121.078 E27.99691
G1 X113.427 Y121.078 E28.13947
G1 X113.663 Y120.453 E28.21162
G1 X113.905 Y120.157 E28.25292
G1 X114.244 Y120.053 E28.29121
G1 X115.203 Y120.053 E28.39478
G1 X117.798 Y120.053 E28.67504
G1 X118.251 Y120.257 E28.7287
G1 X118.416 Y120.619 E28.77167
G1 X118.419 Y120.728 E28.78344
G1 X118.418 Y125.673 E29.3175
G1 F1815 X118.22 Y126.115 E29.36942
G1 F1850.8 X118.022 Y126.243 E29.39424
G1 F1845.6 X117.798 Y126.291 E29.41843
G1 F1809.9 X116.901 Y126.293 E29.51482
G1 F1800 X116.456 Y126.098 E29.56729
G1 X116.309 Y125.856 E29.59787
G1 X116.281 Y125.673 E29.61787
G1 X116.281 Y122.19 E29.99403
G1 X115.49 Y122.19 E30.07946
G1 X115.292 Y122.108 E30.1026
G1 X113.758 Y125.904 E30.54478
G1 X113.552 Y126.167 E30.58086
G1 X113.183 Y126.293 E30.62297
G1 X112.348 Y126.293 E30.71315
G1 X111.961 Y126.153 E30.7576
G1 X111.773 Y125.904 E30.79129
G1 X110.213 Y122.041 E31.24123
G0 F4500 X110.204 Y122.044
G0 X110.159 Y125.899
G0 X108.641 Y126.241
G0 X107.057 Y124.123
G0 X107.082 Y125.899
G0 X105.284 Y126.504
G0 X103.78 Y125.914
G0 X102.307 Y125.019
G0 X100.942 Y123.979
G0 X99.461 Y122.545
G0 X98.52 Y121.437
G0 X97.627 Y120.145
G0 X96.833 Y118.72
G0 X96.098 Y116.972
G0 X95.621 Y115.377
G0 X95.378 Y114.118
G0 X95.012 Y110.947
G0 X95.001 Y110.946
G1 F1800 X95.008 Y112.357 E31.39362
G1 X95.032 Y112.638 E31.42408
G1 X95.183 Y114.037 E31.57605
G1 X95.485 Y115.508 E31.73823
G1 X95.623 Y116.017 E31.79519
G1 X95.973 Y117.107 E31.91883
G1 X96.179 Y117.638 E31.98034
G1 X96.732 Y118.888 E32.12796
G1 X96.864 Y119.135 E32.15821
G1 X97.563 Y120.358 E32.31034
G1 X98.418 Y121.571 E32.47062
G1 X98.611 Y121.814 E32.50414
G1 X99.52 Y122.857 E32.65356
G1 X99.897 Y123.238 E32.71144
G1 X100.924 Y124.18 E32.86195
G1 X102.284 Y125.203 E33.04575
G1 X103.735 Y126.075 E33.22857
G1 X104.1 Y126.245 E33.27206
G1 F1761.2 X104.86 Y126.593 E33.36414
G1 F1580 X105.397 Y126.794 E33.43381
G1 F1512.3 X105.528 Y126.855 E33.45207
G1 F1679.2 X106.367 Y127.175 E33.55535
G1 F1800 X106.887 Y127.355 E33.61478
G1 X108.099 Y127.642 E33.7493
G1 X108.769 Y127.781 E33.8232
G1 X110.225 Y127.962 E33.98165
G1 X111.924 Y128.006 E34.16521
G1 X113.161 Y127.91 E34.29921
G1 X113.851 Y127.838 E34.37413
G1 X115.295 Y127.569 E34.53277
G1 X116.925 Y127.095 E34.7161
G1 F1809.9 X117.879 Y126.71 E34.82665
G1 F1825.1 X118.459 Y126.476 E34.89335
G1 X118.512 Y126.451 E34.8996
G1 F1809.9 X120.001 Y125.655 E35.08104
G1 F1800 X121.048 Y124.95 E35.21736
G1 X121.595 Y124.56 E35.28991
G1 X122.717 Y123.617 E35.4482
G1 X123.798 Y122.508 E35.61546
G1 X124.017 Y122.259 E35.65127
G1 X124.823 Y121.248 E35.79091
G1 X125.133 Y120.805 E35.84931
G1 X125.874 Y119.63 E35.99934
G1 X126.536 Y118.318 E36.15805
G1 X126.748 Y117.814 E36.2171
G1 X127.228 Y116.532 E36.36494
G1 X127.661 Y114.9 E36.5473
G1 X127.843 Y113.71 E36.67731
G1 X127.922 Y113.135 E36.73999
G1 X127.954 Y112.786 E36.77784
G1 X128.009 Y111.723 E36.8928
G1 X128.009 Y111.383 E36.92952
G1 X128.004 Y111.153 E36.95437
G1 X127.944 Y110.026 E37.07626
G1 X127.882 Y109.464 E37.13732
G1 X127.702 Y108.321 E37.26228
G1 X127.592 Y107.817 E37.318
G1 X127.295 Y106.693 E37.44356
G1 X127.119 Y106.16 E37.50418
G1 X126.627 Y104.876 E37.65268
G1 X126.515 Y104.637 E37.68119
G1 X125.954 Y103.519 E37.81628
G1 X125.81 Y103.267 E37.84763
G1 X125.085 Y102.118 E37.99436
G1 X124.776 Y101.691 E38.05128
G1 X124.048 Y100.771 E38.17798
G1 X123.516 Y100.19 E38.26306
G1 X122.882 Y99.538 E38.36128
G1 X122.508 Y99.198 E38.41587
G1 X121.403 Y98.284 E38.57075
G1 X121.205 Y98.142 E38.59706
G1 X120.193 Y97.463 E38.72868
G1 X119.755 Y97.204 E38.78363
G1 X118.703 Y96.643 E38.91239
G1 X118.232 Y96.425 E38.96845
G1 X117.137 Y95.982 E39.09602
G1 X116.631 Y95.809 E39.15377
G1 X115.291 Y95.426 E39.30429
G1 X115.033 Y95.374 E39.33271
G1 X113.61 Y95.12 E39.48882
G1 X113.349 Y95.094 E39.51715
G1 X111.916 Y94.99 E39.67232
G1 X111.66 Y94.989 E39.69997
G1 X110.455 Y95.022 E39.83016
G1 X109.924 Y95.067 E39.88771
G1 X108.764 Y95.217 E40.01404
G1 X108.209 Y95.322 E40.07504
G1 X106.882 Y95.643 E40.22249
G1 X106.638 Y95.721 E40.25016
G1 X105.492 Y96.12 E40.38121
G1 X105.011 Y96.319 E40.43743
G1 X103.942 Y96.819 E40.56489
G1 X103.045 Y97.334 E40.67659
G1 X102.282 Y97.796 E40.77293
G1 X101.1 Y98.678 E40.9322
G1 X100.718 Y99 E40.98616
G1 X99.836 Y99.815 E41.11586
G1 X99.398 Y100.276 E41.18454
G1 X98.697 Y101.075 E41.29933
G1 X98.37 Y101.496 E41.3569
G1 X97.561 Y102.644 E41.50858
G1 X97.428 Y102.869 E41.53681
G1 X96.725 Y104.123 E41.69207
G1 X96.613 Y104.363 E41.72067
G1 X96.134 Y105.461 E41.85005
G1 X95.941 Y105.988 E41.91066
G1 X95.598 Y107.063 E42.03253
G1 X95.46 Y107.605 E42.09293
G1 X95.225 Y108.734 E42.21748
G1 X95.142 Y109.303 E42.27958
G1 X95.008 Y110.659 E42.42674
G1 X95.001 Y110.946 E42.45775
G10
G0 F4500 X95.012 Y110.947
G0 X95.341 Y109.322
G0 X103.325 Y109.322
G0 X103.495 Y101.798
G11
G0 X103.505 Y101.798
G1 F1800 X103.668 Y101.411 E42.5031
G1 X103.943 Y101.231 E42.5386
G1 X104.645 Y101.203 E42.61447
G1 X118.875 Y101.202 E44.15131
G1 X119.259 Y101.339 E44.19535
G1 X119.468 Y101.642 E44.2351
G1 X119.495 Y102.419 E44.31907
G1 X119.495 Y109.061 E45.0364
G1 X119.495 Y118.173 E46.0205
G1 X119.42 Y118.466 E46.05316
G1 X119.186 Y118.707 E46.08944
G1 X118.817 Y118.793 E46.13036
G1 X104.125 Y118.793 E47.7171
G1 X103.757 Y118.668 E47.75907
G1 X103.529 Y118.343 E47.80195
G1 X103.505 Y118.173 E47.82049
G1 X103.505 Y101.798 E49.58899
G0 F4500 X103.495 Y101.798
G0 X103.559 Y118.399
G0 X107.778 Y118.893
G0 X107.778 Y119.174
;TYPE:SKIN
G1 F1800 X106.992 Y119.174 E49.67133
G1 F1683.5 X106.431 Y119.198 E49.73383
G1 F1580 X105.588 Y119.199 E49.83318
G1 F1683.5 X104.756 Y119.174 E49.92583
G1 F1800 X103.922 Y119.137 E50.01329
G1 X103.54 Y118.982 E50.05647
G1 X103.22 Y118.591 E50.10941
G1 X103.13 Y118.151 E50.15645
G1 X103.125 Y101.775 E51.872
G1 X103.328 Y101.233 E51.93264
G1 X103.773 Y100.895 E51.99118
G1 X104.132 Y100.823 E52.02953
G1 X118.761 Y100.822 E53.56207
G1 X118.8 Y100.826 E53.56618
G1 X119.331 Y100.943 E53.62314
G1 X119.751 Y101.356 E53.68485
G1 X119.877 Y101.827 E53.73592
G1 X119.876 Y110.427 E54.63686
G1 X119.877 Y115.319 E55.14934
G1 X119.876 Y118.167 E55.4477
G1 X119.729 Y118.681 E55.50371
G1 X119.339 Y119.053 E55.56017
G1 X118.875 Y119.173 E55.61038
G1 X118.575 Y119.173 E55.6418
G1 F1737.7 X117.974 Y119.187 E55.70683
G1 F1628.2 X117.794 Y119.198 E55.72752
G1 F1576.1 X115.402 Y119.2 E56.01005
G1 F1572.2 X114.169 Y119.199 E56.15601
G1 F1679.2 X113.619 Y119.174 E56.21744
G1 F1800 X111.888 Y119.173 E56.39878
G1 F1683.5 X111.287 Y119.198 E56.46573
G1 F1580 X110.332 Y119.198 E56.57828
G1 F1572.2 X109.68 Y119.201 E56.65547
G1 X109.586 Y119.198 E56.6666
G1 F1580 X108.665 Y119.199 E56.77515
G1 F1611.9 X108.323 Y119.191 E56.81475
G1 F1719.3 X107.778 Y119.174 E56.8743
G10
G0 F4500 X107.778 Y118.893
G0 X105.506 Y118.973
G0 X105.575 Y119.857
G11
G0 X105.448 Y119.657
G1 F1564.5 X105.622 Y119.648 E56.89501
G1 F1580 X106.431 Y119.648 E56.99036
G1 F1683.5 X106.975 Y119.837 E57.05446
G1 F1800 X107.29 Y120.159 E57.10165
G1 X107.696 Y120.744 E57.17625
G1 X107.708 Y120.603 E57.19107
G1 X107.904 Y120.083 E57.24929
G1 X107.992 Y119.98 E57.26348
G1 F1719.3 X108.456 Y119.694 E57.32301
G1 F1611.9 X108.699 Y119.648 E57.35164
